src/assets/img/header_logo_2.svg

<svg width="268" height="51" viewBox="0 0 268 51" fill="none" xmlns="http://www.w3.org/2000/svg">
<path fill-rule="evenodd" clip-rule="evenodd" d="M251.731 18.9678H262.66V14.9911H251.731V5.4911H261.558V7.7004H265.525V5.4911V5.00505V3.54691C265.525 2.44226 264.643 1.55854 263.542 1.55854H251.731H247.764H244.635V5.53528H247.764V30.5004C247.764 31.6051 248.646 32.4888 249.748 32.4888H250.937H251.731H265.216C266.318 32.4888 267.199 31.6051 267.199 30.5004V28.2911V27.7609V26.3027H263.233V28.512H251.731V18.9678ZM191.971 33.1074V29.1306C198.67 29.1306 204.091 23.6958 204.091 16.9795C204.091 10.2632 198.67 4.82831 191.971 4.82831V0.851562C200.829 0.851562 208.013 8.05389 208.013 16.9353C208.013 25.9051 200.829 33.1074 191.971 33.1074ZM217.664 7.78877L219.207 10.3074L231.767 30.3237L233.089 32.4446H233.486H233.794H237.452V5.4911H240.845V1.51435H237.452H236.835H235.469C234.367 1.51435 233.486 2.39807 233.486 3.50273V26.2585C233.397 26.126 233.353 25.9934 233.265 25.8609C232.824 25.1097 232.384 24.4027 231.943 23.6516L218.942 2.92831L218.061 1.51435H217.664H217.444H214.623H213.698V28.4678H210.304V32.4446H213.698H214.315H215.681C216.783 32.4446 217.664 31.5609 217.664 30.4562V7.78877ZM191.971 0.895749V4.87249C185.272 4.87249 179.852 10.3074 179.852 17.0237C179.852 23.7399 185.272 29.1748 191.971 29.1748V33.1516C183.333 33.1516 176.282 26.3027 175.929 17.6864V16.4051C176.282 7.74459 183.289 0.895749 191.971 0.895749ZM175.929 5.4911V1.51435V5.4911ZM175.929 1.55854V5.53528H166.19V28.512H169.363V32.4888H166.19H162.224H159.05V28.512H162.224V5.53528H153.189V1.55854H162.224H166.19H175.929ZM175.929 16.3609C175.929 16.5818 175.929 16.8027 175.929 17.0237C175.929 17.2446 175.929 17.4655 175.929 17.6864V16.3609ZM114.187 18.7027V14.726H116.963H117.756C120.312 14.726 122.384 12.6492 122.384 10.0864C122.384 7.52366 120.312 5.44691 117.756 5.44691H114.539H114.187V1.47017H117.756C122.472 1.47017 126.306 5.35854 126.306 10.0423C126.306 13.2678 124.499 16.0958 121.899 17.5539C123.53 18.7469 124.896 20.3818 125.645 22.2818C126.086 23.3864 126.35 24.5795 126.306 25.7725V32.3562H124.323C123.221 32.3562 122.34 31.4725 122.34 30.3678V24.5795C122.34 23.6516 122.031 22.7237 121.502 21.9725C120.665 20.6911 119.211 19.6306 117.624 18.7027H116.919H114.187ZM114.187 1.55854V5.53528H105.99V10.1306V10.219V14.8144H114.187V18.7911H110.617H105.99V32.533H104.006C102.905 32.533 102.023 31.6492 102.023 30.5446V10.219V5.4911H98.8942V1.51435H102.023H105.99H110.617H112.556H114.187V1.55854ZM21.242 1.55854H18.4655H17.5401V28.512H14.1026V32.4888H17.496H18.113H19.4792C20.5809 32.4888 21.4623 31.6051 21.4623 30.5004V7.78877L23.0048 10.3074L35.5649 30.3237L36.887 32.4446H37.2836H37.5921H41.25V5.4911H44.6434V1.51435H41.25H40.633H39.2668C38.1651 1.51435 37.2836 2.39807 37.2836 3.50273V26.2585C37.1955 26.126 37.1514 25.9934 37.0633 25.8609C36.6226 25.1097 36.1819 24.4027 35.7412 23.6516L22.6963 2.92831L21.8149 1.51435H21.4183H21.242V1.55854ZM7.13942 5.4911V28.4678H10.3125V32.4446H7.13942H3.17308H0V28.4678H3.17308V5.4911H0V1.51435H3.17308H7.13942H10.3125V5.4911H7.13942ZM61.4343 5.4911V28.4678H64.6074V32.4446H61.4343H57.4679H54.2949V28.4678H57.4679V5.4911H48.4335V1.51435H57.4679H61.4343H70.4687V5.4911H61.4343ZM77.3878 5.4911V30.4562C77.3878 31.5609 78.2692 32.4446 79.371 32.4446H80.5609H81.3542H94.8397C95.9415 32.4446 96.8229 31.5609 96.8229 30.4562V28.2469V27.7167V26.2585H92.8566V28.4678H81.3542V18.9678H92.2836V14.9911H81.3542V5.4911H91.1819V7.7004H95.1482V5.4911V5.00505V3.54691C95.1482 2.44226 94.2668 1.55854 93.1651 1.55854H81.3542H77.3878H74.2588V5.53528H77.3878V5.4911Z" fill="#004F64"/>
<path fill-rule="evenodd" clip-rule="evenodd" d="M142.743 18.9679H142.831C145.431 18.9679 147.591 21.0888 147.591 23.74C147.591 26.347 145.475 28.5121 142.831 28.5121H141.068H126.305V32.4888H140.98H141.068H142.831C147.591 32.4888 151.513 28.5563 151.513 23.7842C151.513 19.0121 147.591 15.0795 142.831 15.0795H142.743H141.377V15.1237V15.0795H138.821C136.221 15.0795 134.061 12.9586 134.061 10.3074C134.061 7.70045 136.176 5.53534 138.821 5.53534H140.584H153.364V1.55859H140.672H140.584H138.821C134.061 1.55859 130.139 5.49115 130.139 10.2632C130.139 15.0353 134.061 18.9679 138.821 18.9679H141.333H142.743Z" fill="#CF3620"/>
</svg>

<svg xmlns="http://www.w3.org/2000/svg" fill="none" viewBox="0 0 268 51"><path fill="#004F64" fill-rule="evenodd" d="M251.731 18.968h10.929V14.99h-10.929v-9.5h9.827v2.21h3.967V3.546a1.978 1.978 0 0 0-1.983-1.988h-18.907v3.976h3.129V30.5c0 1.105.882 1.989 1.984 1.989h15.468a1.977 1.977 0 0 0 1.983-1.989v-4.197h-3.966v2.209h-11.502v-9.544zm-59.76 14.14V29.13c6.699 0 12.12-5.435 12.12-12.151 0-6.717-5.421-12.152-12.12-12.152V.852c8.858 0 16.042 7.202 16.042 16.083 0 8.97-7.184 16.172-16.042 16.172zm25.693-25.32l1.543 2.52 12.56 20.016 1.322 2.12H237.452V5.492h3.393V1.514H235.469a1.977 1.977 0 0 0-1.983 1.989v22.756c-.089-.133-.133-.266-.221-.398-.441-.751-.881-1.458-1.322-2.21L218.942 2.929l-.881-1.414h-4.363v26.954h-3.394v3.977H215.681a1.977 1.977 0 0 0 1.983-1.989V7.79zM191.971.897v3.976c-6.699 0-12.119 5.435-12.119 12.152 0 6.716 5.42 12.15 12.119 12.15v3.978c-8.638 0-15.689-6.85-16.042-15.466v-1.28c.353-8.661 7.36-15.51 16.042-15.51zM175.929 5.49V1.514v3.977zm0-3.932v3.976h-9.739v22.977h3.173v3.977H159.05v-3.977h3.174V5.535h-9.035V1.56H175.929zm0 14.802V17.686v-1.325zm-61.742 2.342v-3.977h3.569a4.634 4.634 0 0 0 4.628-4.64 4.633 4.633 0 0 0-4.628-4.64h-3.569V1.47h3.569c4.716 0 8.55 3.889 8.55 8.572 0 3.226-1.807 6.054-4.407 7.512 1.631 1.193 2.997 2.828 3.746 4.728.441 1.104.705 2.297.661 3.49v6.584h-1.983a1.977 1.977 0 0 1-1.983-1.988V24.58c0-.928-.309-1.856-.838-2.607-.837-1.282-2.291-2.342-3.878-3.27H114.187zm0-17.144v3.976h-8.197v9.279h8.197v3.977h-8.197v13.742h-1.984a1.978 1.978 0 0 1-1.983-1.988V5.49h-3.129V1.514h15.293v.045zm-92.945 0H17.54v26.953h-3.437v3.977H19.479a1.977 1.977 0 0 0 1.983-1.989V7.79l1.543 2.518 12.56 20.017 1.322 2.12H41.25V5.492h3.393V1.514H39.267a1.978 1.978 0 0 0-1.983 1.989v22.756c-.088-.133-.133-.266-.22-.398-.441-.751-.882-1.458-1.323-2.21L22.696 2.929l-.881-1.414h-.573v.045zM7.139 5.49v22.977h3.173v3.977H0v-3.977h3.173V5.49H0V1.514H10.312v3.977H7.14zm54.295 0v22.977h3.173v3.977H54.295v-3.977h3.173V5.49h-9.035V1.514H70.47v3.977h-9.035zm15.954 0v24.965c0 1.105.881 1.989 1.983 1.989H94.84a1.978 1.978 0 0 0 1.983-1.989V26.26h-3.966v2.209H81.354v-9.5h10.93V14.99h-10.93v-9.5h9.828v2.21h3.966V3.546a1.977 1.977 0 0 0-1.983-1.988H74.258v3.976h3.13v-.044z" clip-rule="evenodd"/><path fill="#CF3620" fill-rule="evenodd" d="M142.743 18.968h.088c2.6 0 4.76 2.12 4.76 4.772 0 2.607-2.116 4.772-4.76 4.772h-16.526v3.977h16.526c4.76 0 8.682-3.933 8.682-8.705s-3.922-8.704-8.682-8.704H141.377v.044-.045h-2.556c-2.6 0-4.76-2.12-4.76-4.772 0-2.607 2.115-4.772 4.76-4.772h14.543V1.56h-14.543c-4.76 0-8.682 3.932-8.682 8.704s3.922 8.705 8.682 8.705H142.743z" clip-rule="evenodd"/></svg>
